X: 15026
T: George Petries
R: jig
M: 6/8
K: Gmajor
Bc|:"G"ded dBd|g2B d2d|"F"c2A ABc|"D"e2d B2c|
"G"ded dBd|g2B d2d|"D"c2A ABA|"G"G3 G:|
g=f|:"C"e2c cde|"G"d2B Bcd|"D"c2A ABc|"G"e2d B2g|
"C"e2c cde|"G"d2B B2d|"D"c2A ABA|"G"G3 G:|

